X:1
T:Play last time in A
L:1/8
Q:1/4=160
M:6/8
K:A
"^Play last time in A" z6 | z6 | z6 | z6 :|
"D" f2 f f2 c |"Bm" d3 d2 d |"E" e2 e e2 B |"E" c3- c z2 |
"A" A3 Bcd |"A" c3 e3 |"D" B2 d"E" c2 B |"A" A2 F E2 z |
"A" A3 Bcd |"A" c3 e3 |"D" B2 d"E" c2 B |"A" A3- A z z |]
